assets/img/wishlist-icon.svg

<?xml version="1.0" encoding="UTF-8"?>
<svg width="26px" height="22px" viewBox="0 0 26 22" version="1.1" xmlns="http://www.w3.org/2000/svg" xmlns:xlink="http://www.w3.org/1999/xlink">
    <title>10E917D2-C5F0-46F3-B764-D0927291312B@svg</title>
    <g id="homepage" stroke="none" stroke-width="1" fill="none" fill-rule="evenodd">
        <g id="homepage-v3" transform="translate(-1049.000000, -97.000000)" fill="#504E4E">
            <g id="header" transform="translate(0.000000, 31.000000)">
                <g id="wishlist" transform="translate(1049.000000, 66.000000)">
                    <g id="wishlist-icon-header-desktop" transform="translate(0.000000, 0.000000)">
                        <path d="M12.8062581,19.5852462 C10.862129,18.4353231 1.6816129,12.7187077 1.6816129,7.36170769 C1.6816129,4.16916923 4.23045161,1.56978462 7.44270968,1.60024615 C9.36335484,1.60024615 11.1305161,2.56824615 12.1780645,4.1954 L12.8003871,5.16170769 L13.4277419,4.19793846 C14.4887097,2.5674 16.322129,1.60870769 18.2117419,1.60024615 C21.3468387,1.61632308 23.9099355,4.20132308 23.925871,7.36170769 C23.925871,12.8007846 14.7520645,18.4488615 12.8062581,19.5852462 M18.2192903,0.0949384615 L18.2176129,0.0949384615 L18.2,0.0949384615 C16.1132903,0.0949384615 14.1632903,0.9944 12.8062581,2.54286154 C11.4492258,0.978323077 9.46567742,0.0966307692 7.39154839,0.0949384615 C3.42025806,0.0949384615 0.189548387,3.35432308 0.189548387,7.36170769 C0.189548387,14.2087846 11.9432258,20.8324769 12.4430968,21.1117077 L12.8012258,21.3105538 L13.1601935,21.1134 C13.6609032,20.8384 25.4179355,14.3069385 25.4179355,7.35747692 C25.3986452,3.37293846 22.1696129,0.1144 18.2192903,0.0949384615" id="Fill-1"></path>
                    </g>
                </g>
            </g>
        </g>
    </g>
</svg>

<svg width="26" height="22" xmlns="http://www.w3.org/2000/svg"><path d="M12.806 19.585C10.862 18.435 1.682 12.72 1.682 7.362c0-3.193 2.548-5.792 5.76-5.762a5.61 5.61 0 0 1 4.736 2.595l.622.967.628-.964A5.766 5.766 0 0 1 18.212 1.6c3.135.016 5.698 2.601 5.714 5.762 0 5.439-9.174 11.087-11.12 12.223M18.22.095H18.2c-2.087 0-4.037.9-5.394 2.448C11.45.978 9.466.097 7.392.095 3.42.095.19 3.355.19 7.362c0 6.847 11.753 13.47 12.253 13.75l.358.199.36-.198c.5-.275 12.257-6.806 12.257-13.756-.02-3.984-3.248-7.243-7.199-7.262" fill="#504E4E" fill-rule="evenodd"/></svg>
